X: 272
T: Jackson's
R: reel
M: C|
L: 1/8
K: Edor
|:e3d B2dB|A3B A2GF|E2FA BAFB|ABdf eBB2|
e3d B2dB|A2GB AFGF|EFGA B2ef|gefd Beed:|
e3d Bdeg|fddc dfaf|gfed Bdd2|BdAd BEEE|
e3d Bdeg|fdad bdad|bgaf gfed|BdAd BEEE|
efed Bdeg|fdad bdad|gfed Bdef|gfga bgef|
g2ef gfeg|fddc defa|bgaf gfef|~g3f efgf|| 

